X: 1097
T: The Blue-Boar.
%R: _
B: Henry Playford "Apollo's Banquet", London 1687 (5th Edition)
F: https://archive.org/details/apollosbanquetco01rugg
Z: 2017 John Chambers <jc:trillian.mit.edu>
M: 3/2
L: 1/8
K: Bb
% - - - - - - - - - -
de |\
c4B2 f2e2d2 | g3ab2 a3gf2 | g2f2d2 G2A2B2 | c3dcB A4de |\
c4B2 f2e2d2 | g2a2b2 a3gf2 | g2f2d2 G2A2B2 | B4A2 B4 :|
|: f2 |\
f3gf2 d2=e2f2 | g3agf =e3dc2 | f3ef2 g4ab | g6 f4ga |\
b3ag2 f2d2B2 | c3dcB A3Bc2 | F2d2c2 d4e2 | c6 B4 |]
% - - - - - - - - - -

%%sep 1 1 500
%%sep 1 1 500

